pp/printer.svg

<svg viewBox="0 0 20 20" fill="none" xmlns="http://www.w3.org/2000/svg" height="1em" width="1em">
  <path fill-rule="evenodd" clip-rule="evenodd" d="M5 7V3C5 2.44772 5.3731 2 5.83333 2V2H14.1667C14.6269 2 15 2.44772 15 3V7" fill="white"/>
  <path d="M6 3V7C6 7.55228 5.55228 8 5 8C4.44772 8 4 7.55228 4 7V3C4 1.93165 4.77637 1 5.83333 1H14.1667C15.2236 1 16 1.93165 16 3V7C16 7.55228 15.5523 8 15 8C14.4477 8 14 7.55228 14 7V3H6Z" fill="currentColor"/>
  <path d="M4 6H16C17.6569 6 19 7.34315 19 9V14C19 15.6569 17.6569 17 16 17H4C2.34315 17 1 15.6569 1 14L1 9C1 7.34315 2.34315 6 4 6Z" fill="currentColor"/>
  <path fill-rule="evenodd" clip-rule="evenodd" d="M5 12V16.8C5 17.4627 5.3731 18 5.83333 18V18H14.1667C14.6269 18 15 17.4627 15 16.8V12" fill="white"/>
  <path d="M6 16.8V12C6 11.4477 5.55228 11 5 11C4.44772 11 4 11.4477 4 12V16.8C4 17.9536 4.72664 19 5.83333 19H14.1667C15.2734 19 16 17.9536 16 16.8V12C16 11.4477 15.5523 11 15 11C14.4477 11 14 11.4477 14 12V16.8C14 16.8775 13.9883 16.9466 13.971 17H6.02904C6.0117 16.9466 6 16.8775 6 16.8Z" fill="currentColor"/>
  <path d="M7 16C6.72386 16 6.5 15.7761 6.5 15.5C6.5 15.2239 6.72386 15 7 15H13C13.2761 15 13.5 15.2239 13.5 15.5C13.5 15.7761 13.2761 16 13 16H7Z" fill="currentColor"/>
  <path d="M7 14C6.72386 14 6.5 13.7761 6.5 13.5C6.5 13.2239 6.72386 13 7 13H13C13.2761 13 13.5 13.2239 13.5 13.5C13.5 13.7761 13.2761 14 13 14H7Z" fill="currentColor"/>
</svg>

<svg viewBox="0 0 20 20" fill="none" xmlns="http://www.w3.org/2000/svg" height="1em" width="1em">
  <path fill-rule="evenodd" clip-rule="evenodd" d="M5 7V3c0-.552.373-1 .833-1h8.334c.46 0 .833.448.833 1v4" fill="#fff"/>
  <path d="M6 3v4a1 1 0 0 1-2 0V3c0-1.068.776-2 1.833-2h8.334C15.224 1 16 1.932 16 3v4a1 1 0 1 1-2 0V3H6Z" fill="currentColor"/>
  <path d="M4 6h12a3 3 0 0 1 3 3v5a3 3 0 0 1-3 3H4a3 3 0 0 1-3-3V9a3 3 0 0 1 3-3Z" fill="currentColor"/>
  <path fill-rule="evenodd" clip-rule="evenodd" d="M5 12v4.8c0 .663.373 1.2.833 1.2h8.334c.46 0 .833-.537.833-1.2V12" fill="#fff"/>
  <path d="M6 16.8V12a1 1 0 1 0-2 0v4.8c0 1.154.727 2.2 1.833 2.2h8.334C15.273 19 16 17.954 16 16.8V12a1 1 0 1 0-2 0v4.8a.661.661 0 0 1-.029.2H6.029A.66.66 0 0 1 6 16.8Z" fill="currentColor"/>
  <path d="M7 16a.5.5 0 0 1 0-1h6a.5.5 0 0 1 0 1H7Zm0-2a.5.5 0 0 1 0-1h6a.5.5 0 0 1 0 1H7Z" fill="currentColor"/>
</svg>
